X: 1
T: Crossing the Brazos
C: Mike Richardson
N: Seattle, Washington
B: "Gems - The Best of the Country Dance and Song Society", CDSS, 1993, p.66
Z: 2011 John Chambers <jc:trillian.mit.edu>
R: reel
M: C|
L: 1/8
K: Ador
|: "Am"A2a2 g2ef | gfed edcB | "Am"A2a2 g2ef | "G"gfed "E"e4 |
"Am"A2a2 g2ef | gfed edcB | "Am"AB=cA "G"GABd |1 "E"(3=cBA BG "Am"AEF^G :|2 "E"(3=cBA BG "Am"A2 ||
|: (3ef^g |\
"Am"a2A2 A2ab | "Am"agf=c "G"dBGB | "Am"Aa2a- azab | "Am"age=c "E"de3 |
"Am"az2a- azab | "Am"age=c "G"dBGB | "F"=cA=FA "Em"BAGD |1 "Am"(3EFG A2 A2 :|2 "Am"(3EFG A2 HAge=c |]
